X:1
T:Title
%%score { 1 | 2 }
L:1/8
M:4/4
K:F
V:1 treble nm="Grand Piano"
V:2 bass 
V:1
 z4 z2[Q:1/4=100] c2 | c4 A2 F2 | [FA]2 [EG]4 [EB]2 | [EB]4 [FA]2 [EG]2 | A6 c2 | c4 A2 F2 | %6
 [FA]2 [EG]4 [EG]2 | F4 A2 G2 |[M:3/4] [EG]6 |[M:1/4] [Ec]2 |[M:4/4] c4 A2 F2 | [EG]6 [EB]2 | %12
 [EB]4 [FA]2 [EG]2 | [FA]6 [Fc]2 | [^Fd]4 [FA]2 [Fc]2 | [DGB]2 [B,D]4 [=B,DF]2 | %16
 [CFA]4 [A,F]2 [B,EG]2 |[M:3/4] [F,A,CF]6 |] %18
V:2
 z4 z2 [F,A,F]2 | [F,A,F]4 [F,CF]2 [F,A,C]2 | [C,C]2 [C,C]4 [C,G,]2 | [C,G,]4 [C,C]2 [C,C]2 | %4
 [F,CF]6 [F,A,F]2 | [F,A,F]4 [F,CF]2 [F,A,C]2 | [C,C]2 [C,C]4 [C,C]2 | %7
 [D,A,D]4[K:treble] [G,=B,F]2 [G,B,F]2 |[M:3/4][K:bass] [C,C]6 |[M:1/4] [C,B,]2 | %10
[M:4/4] [F,A,F]4 [F,CF]2 [F,A,]2 | [C,C]6 [C,G,]2 | [C,G,]4 [C,C]2 [C,C]2 | [F,C]6 [F,A,]2 | %14
 [D,A,]4 [D,D]2 [D,D]2 | G,2 G,4 G,2 | C,4 C,2 C,2 |[M:3/4] F,,6 |] %18

